X: 1091
T: Get Up Old Woman And Shake Yourself
R:double jig
N:"collected by F.O'Neill"
B:O'Neill's 1091
Z:Transcribed by henrik.norbeck@mailbox.swipnet.se
M:6/8
L:1/8
K:C
(E/F/)|G2B {c}BAB|G2E E2G|F2A {B}AFA|F2D DEF|
G2B {c}BAB|def {a}gfe|dcB {c}BAB|G2E E2:|
(B/^c/)|d2B {c}BAB|d2B AB^c|d2B {c}BAB|G2E E2(B/^c/)|
d2B {c}BAB|def {a}gfe|dcB {c}BAB|G2E E2:|


